src/pos-icons/animation-play.svg

<svg height="24" viewBox="0 0 24 24" width="24" xmlns="http://www.w3.org/2000/svg"><path d="m4 2h10v2h-10v10h-2v-10c0-1.11.89-2 2-2m4 4h10v2h-10v10h-2v-10c0-1.11.89-2 2-2m4 4h8c1.11 0 2 .89 2 2v8c0 1.11-.89 2-2 2h-8c-1.11 0-2-.89-2-2v-8c0-1.11.89-2 2-2m2 2v8l6-4z"/></svg>

<?xml version="1.0" encoding="UTF-8"?><!DOCTYPE svg PUBLIC "-//W3C//DTD SVG 1.1//EN" "http://www.w3.org/Graphics/SVG/1.1/DTD/svg11.dtd"><svg xmlns="http://www.w3.org/2000/svg" xmlns:xlink="http://www.w3.org/1999/xlink" version="1.1" id="mdi-animation-play" width="24" height="24" viewBox="0 0 24 24"><path d="M4,2H14V4H4V14H2V4C2,2.89 2.89,2 4,2M8,6H18V8H8V18H6V8C6,6.89 6.89,6 8,6M12,10H20C21.11,10 22,10.89 22,12V20C22,21.11 21.11,22 20,22H12C10.89,22 10,21.11 10,20V12C10,10.89 10.89,10 12,10M14,12V20L20,16L14,12Z" /></svg>
